X: 1065
T: Amanda's Birthday
R: reel
M: 4/4
K: Amajor
|:ABce dcBA|FEFA E2 AG|ABce f2 fe|BA B/c/e dcBA|
ABce dcBA|FEFA B2 Bc|Acea fecA|EAAG A2 AG:|
|:FAeA EAeA|cBBA BAce|fAfa gecA|f2 fe B2 BA|
cefg agfe|cBBA BcAG|FAeA EAeA|EAAG A2 AG:|

